icons/ghost/ghost-original.svg

<?xml version="1.0" encoding="UTF-8"?>
<svg xmlns="http://www.w3.org/2000/svg" xmlns:xlink="http://www.w3.org/1999/xlink" width="128px" height="128px" viewBox="0 0 128 128" version="1.1">
<g id="surface1">
<path style=" stroke:none;fill-rule:nonzero;fill:rgb(0%,0%,0%);fill-opacity:1;" d="M 58.527344 4.800781 C 49.34375 5.632812 38.816406 9.40625 30.945312 14.65625 C 26.625 17.503906 17.886719 24.960938 15.742188 27.617188 C 10.464844 34.046875 6.335938 42.816406 4.894531 50.558594 C 4.222656 54.304688 4.128906 65.664062 4.734375 70.71875 C 5.886719 79.9375 8.0625 87.488281 11.777344 94.816406 C 15.167969 101.535156 18.046875 105.792969 21.566406 109.28125 C 24.960938 112.640625 27.808594 114.367188 32.703125 116.097656 C 34.527344 116.703125 37.023438 117.886719 38.238281 118.65625 C 45.183594 123.105469 52.703125 125.214844 61.441406 125.214844 C 66.238281 125.214844 69.054688 124.734375 73.535156 123.136719 C 80.382812 120.734375 85.695312 117.535156 90.238281 113.089844 C 93.089844 110.304688 93.472656 110.046875 95.839844 109.246094 C 100.992188 107.519531 104.703125 105.183594 109.246094 100.832031 C 116.191406 94.113281 120.832031 86.175781 123.230469 76.863281 C 125.375 68.511719 124.800781 61.984375 120.734375 49.28125 C 117.535156 39.265625 114.878906 35.039062 105.761719 25.632812 C 99.296875 18.976562 94.046875 15.265625 84.960938 10.847656 C 74.464844 5.761719 66.878906 4.03125 58.527344 4.800781 Z M 65.121094 5.726562 C 65.503906 5.886719 64.703125 6.046875 62.878906 6.175781 C 56.382812 6.59375 44.097656 9.023438 40.449219 10.558594 C 39.617188 10.910156 38.878906 11.167969 38.816406 11.070312 C 38.65625 10.910156 42.910156 9.121094 45.761719 8.160156 C 48.351562 7.265625 53.28125 6.113281 55.839844 5.761719 C 58.335938 5.441406 64.320312 5.40625 65.121094 5.726562 Z M 63.136719 10.273438 C 70.59375 10.71875 73.503906 11.167969 67.679688 10.976562 C 59.425781 10.65625 48.960938 11.679688 41.921875 13.441406 C 39.902344 13.953125 38.207031 14.335938 38.175781 14.273438 C 37.984375 14.078125 43.519531 11.550781 45.121094 11.070312 C 48.960938 9.953125 54.367188 9.726562 63.136719 10.273438 Z M 38.398438 11.359375 C 38.398438 11.425781 37.984375 11.710938 37.441406 12 C 36.222656 12.609375 36.160156 12.351562 37.375 11.710938 C 38.367188 11.167969 38.398438 11.136719 38.398438 11.359375 Z M 74.238281 13.535156 C 81.183594 15.105469 86.273438 16.863281 92.640625 20.03125 C 99.007812 23.199219 100.800781 24.542969 104.257812 28.800781 C 112.351562 38.753906 116.414062 46.816406 117.40625 54.878906 C 118.015625 59.9375 117.886719 62.527344 116.671875 67.328125 C 115.328125 72.574219 113.664062 76.128906 110.015625 81.28125 C 108.609375 83.296875 106.144531 86.816406 104.542969 89.121094 C 101.089844 94.113281 98.527344 97.375 95.9375 100.128906 C 94.433594 101.695312 93.375 102.433594 91.359375 103.390625 C 88.222656 104.863281 76.734375 108.800781 75.550781 108.800781 C 75.105469 108.800781 72.800781 107.808594 70.398438 106.59375 C 65.792969 104.222656 64.542969 103.777344 59.039062 102.527344 C 56.542969 101.984375 54.625 101.28125 52.320312 100.128906 C 38.273438 92.992188 30.015625 85.40625 24.574219 74.59375 C 22.785156 71.007812 22.527344 70.945312 24.160156 74.464844 C 26.335938 79.167969 30.144531 84.511719 33.792969 88.03125 C 38.144531 92.191406 46.015625 97.632812 51.871094 100.511719 C 53.34375 101.246094 56.0625 102.71875 57.921875 103.808594 C 61.984375 106.207031 63.777344 106.976562 67.425781 107.96875 C 69.34375 108.449219 70.273438 108.863281 70.335938 109.214844 C 70.527344 110.207031 69.246094 110.945312 65.726562 111.808594 C 63.808594 112.257812 62.046875 112.863281 61.792969 113.121094 C 61.054688 113.855469 61.535156 113.761719 68.574219 112.03125 L 74.910156 110.433594 L 78.433594 110.816406 C 80.351562 111.007812 81.921875 111.265625 81.921875 111.390625 C 81.921875 111.585938 78.207031 113.375 75.808594 114.335938 C 71.550781 116.0625 63.585938 117.664062 57.761719 117.953125 C 54.433594 118.113281 54.304688 118.078125 55.136719 117.601562 C 55.617188 117.3125 56 117.054688 56 116.992188 C 56 116.929688 54.65625 117.183594 53.054688 117.503906 C 50.207031 118.113281 49.953125 118.113281 47.359375 117.601562 C 40.863281 116.351562 31.742188 110.367188 26.113281 103.679688 C 20.609375 97.152344 15.359375 87.167969 13.023438 78.71875 C 11.457031 73.089844 11.070312 70.113281 11.039062 63.199219 C 11.039062 56.960938 11.070312 56.703125 12.097656 52.640625 C 14.59375 43.007812 18.207031 33.921875 20.960938 30.558594 L 21.726562 29.601562 L 21.089844 31.617188 C 20.160156 34.6875 20.382812 35.105469 21.375 32.160156 C 23.039062 27.199219 25.375 24.414062 30.976562 20.769531 C 32.863281 19.519531 34.6875 18.785156 40.574219 16.832031 C 53.183594 12.671875 54.335938 12.480469 63.519531 12.609375 C 69.632812 12.703125 71.039062 12.832031 74.238281 13.535156 Z M 12.128906 36.863281 C 9.3125 42.464844 8 46.6875 6.878906 53.601562 C 6.207031 57.921875 6.175781 58.015625 5.921875 56.511719 C 5.601562 54.464844 5.953125 49.28125 6.558594 47.007812 C 7.230469 44.414062 8.800781 40.800781 10.238281 38.335938 C 11.425781 36.351562 12.992188 34.238281 13.3125 34.238281 C 13.375 34.238281 12.863281 35.425781 12.128906 36.863281 Z M 15.328125 37.761719 C 13.953125 40.929688 12.160156 46.847656 11.390625 50.558594 C 10.496094 54.976562 9.921875 62.910156 10.238281 66.398438 C 10.65625 71.070312 11.457031 76.097656 12.320312 79.617188 C 13.246094 83.425781 18.238281 93.601562 21.921875 99.199219 C 24.320312 102.910156 24.671875 103.679688 23.902344 103.679688 C 22.625 103.679688 17.246094 98.433594 14.847656 94.847656 C 12.574219 91.457031 11.871094 89.3125 11.710938 85.472656 C 11.585938 82.816406 11.390625 81.953125 10.273438 79.039062 C 8.800781 75.328125 8.480469 73.726562 8.03125 67.902344 C 7.519531 61.695312 8.449219 53.921875 10.398438 48.160156 C 11.808594 43.9375 15.96875 34.878906 16.480469 34.878906 C 16.511719 34.878906 16 36.191406 15.328125 37.761719 Z M 122.207031 57.664062 C 124.863281 69.921875 122.71875 81.664062 115.96875 92.097656 C 112.832031 96.894531 106.910156 102.433594 102.046875 105.089844 C 100.128906 106.144531 96.640625 107.519531 95.9375 107.519531 C 95.328125 107.519531 98.6875 103.96875 103.230469 99.808594 C 108.734375 94.785156 111.328125 91.679688 113.246094 87.777344 C 114.015625 86.238281 115.390625 83.777344 116.320312 82.367188 C 118.527344 79.007812 119.777344 76.480469 120.832031 73.375 C 121.953125 70.078125 122.207031 64.960938 121.472656 60.191406 C 120.894531 56.511719 120.800781 53.28125 121.246094 54.078125 C 121.40625 54.335938 121.824219 55.96875 122.207031 57.664062 Z M 117.34375 67.585938 C 117.246094 67.839844 117.152344 67.742188 117.152344 67.390625 C 117.121094 67.039062 117.214844 66.847656 117.3125 66.976562 C 117.40625 67.070312 117.441406 67.359375 117.34375 67.585938 Z M 116.640625 72.929688 C 115.296875 80.382812 112.097656 87.070312 107.519531 91.9375 C 105.601562 94.015625 100.992188 97.695312 98.398438 99.230469 L 97.121094 100 L 98.113281 98.71875 C 98.6875 98.015625 101.121094 94.558594 103.585938 91.039062 C 106.046875 87.519531 109.121094 83.105469 110.433594 81.246094 C 113.28125 77.214844 115.167969 73.664062 116.191406 70.398438 C 116.832031 68.449219 116.992188 68.191406 117.054688 68.960938 C 117.121094 69.472656 116.929688 71.265625 116.640625 72.929688 Z M 22.113281 104.480469 C 24.574219 106.527344 30.398438 112.414062 30.398438 112.863281 C 30.398438 113.695312 28.160156 112.703125 25.089844 110.527344 C 22.273438 108.542969 19.519531 104.894531 19.519531 103.136719 C 19.519531 102.558594 20.222656 102.910156 22.113281 104.480469 Z M 64.03125 104.832031 C 64.863281 105.089844 65.792969 105.601562 66.078125 105.921875 C 66.65625 106.527344 66.625 106.558594 65.824219 106.558594 C 65.023438 106.558594 62.046875 105.566406 61.152344 104.992188 C 60.929688 104.832031 60.800781 104.574219 60.929688 104.382812 C 61.152344 104.03125 61.726562 104.128906 64.03125 104.832031 Z M 89.792969 105.886719 C 89.695312 106.015625 88.832031 106.753906 87.871094 107.488281 C 86.207031 108.769531 86.046875 108.832031 84.128906 108.734375 L 82.144531 108.640625 L 85.953125 107.136719 C 90.367188 105.40625 90.015625 105.535156 89.792969 105.886719 Z M 41.3125 116.257812 C 42.878906 116.992188 44.160156 117.695312 44.160156 117.824219 C 44.160156 118.496094 38.175781 116.960938 36.640625 115.871094 C 35.457031 115.039062 32.320312 111.519531 32.320312 111.007812 C 32.320312 110.878906 33.695312 111.710938 35.425781 112.863281 C 37.121094 113.984375 39.777344 115.519531 41.3125 116.257812 Z M 89.34375 112.257812 C 84.640625 117.855469 76.289062 122.527344 67.839844 124.320312 C 64.894531 124.929688 58.496094 124.929688 54.945312 124.320312 C 48.863281 123.265625 42.335938 120.511719 43.070312 119.328125 C 43.199219 119.136719 44.382812 119.070312 46.175781 119.199219 C 49.3125 119.425781 55.742188 119.007812 61.761719 118.207031 C 70.527344 117.023438 75.488281 115.679688 80.960938 113.023438 C 83.902344 111.585938 85.023438 111.296875 90.175781 110.753906 C 90.433594 110.753906 90.046875 111.425781 89.34375 112.257812 Z M 89.34375 112.257812 "/>
<path style=" stroke:none;fill-rule:nonzero;fill:rgb(0%,0%,0%);fill-opacity:1;" d="M 20.222656 35.519531 C 20.222656 35.96875 20.289062 36.128906 20.382812 35.902344 C 20.449219 35.710938 20.449219 35.328125 20.382812 35.105469 C 20.289062 34.910156 20.222656 35.070312 20.222656 35.519531 Z M 20.222656 35.519531 "/>
<path style=" stroke:none;fill-rule:nonzero;fill:rgb(0%,0%,0%);fill-opacity:1;" d="M 19.902344 37.601562 C 19.902344 38.113281 19.96875 38.304688 20.0625 37.984375 C 20.128906 37.695312 20.128906 37.246094 20.0625 37.023438 C 19.96875 36.832031 19.902344 37.054688 19.902344 37.601562 Z M 19.902344 37.601562 "/>
<path style=" stroke:none;fill-rule:nonzero;fill:rgb(0%,0%,0%);fill-opacity:1;" d="M 22.113281 69.121094 C 22.113281 69.375 22.238281 69.824219 22.398438 70.078125 C 22.785156 70.65625 22.785156 70.144531 22.398438 69.28125 C 22.207031 68.863281 22.113281 68.800781 22.113281 69.121094 Z M 22.113281 69.121094 "/>
</g>
</svg>

<svg xmlns="http://www.w3.org/2000/svg" viewBox="0 0 128 128"><path d="M58.527 4.8c-9.183.833-19.71 4.606-27.582 9.856-4.32 2.848-13.058 10.305-15.203 12.961-5.277 6.43-9.406 15.2-10.847 22.942-.672 3.746-.766 15.105-.16 20.16 1.152 9.219 3.327 16.77 7.042 24.097 3.391 6.72 6.27 10.977 9.79 14.465 3.394 3.36 6.242 5.086 11.136 6.817 1.824.605 4.32 1.789 5.535 2.558 6.946 4.45 14.465 6.559 23.203 6.559 4.797 0 7.614-.48 12.094-2.078 6.848-2.403 12.16-5.602 16.703-10.047 2.852-2.785 3.235-3.043 5.602-3.844 5.152-1.726 8.863-4.062 13.406-8.414 6.945-6.719 11.586-14.656 13.984-23.969 2.145-8.351 1.57-14.879-2.496-27.582-3.199-10.015-5.855-14.242-14.972-23.648-6.465-6.656-11.715-10.367-20.801-14.785C74.465 5.762 66.879 4.03 58.527 4.8Zm6.594.927c.383.16-.418.32-2.242.449-6.496.418-18.781 2.847-22.43 4.383-.832.351-1.57.609-1.633.511-.16-.16 4.094-1.949 6.946-2.91 2.59-.894 7.52-2.047 10.078-2.398 2.496-.32 8.48-.356 9.281-.035Zm-1.984 4.546c7.457.446 10.367.895 4.543.704-8.254-.32-18.72.703-25.758 2.464-2.02.512-3.715.895-3.746.832-.192-.195 5.344-2.722 6.945-3.203 3.84-1.117 9.246-1.343 18.016-.797ZM38.398 11.36c0 .067-.414.352-.957.641-1.218.61-1.28.352-.066-.29.992-.542 1.023-.573 1.023-.35Zm35.84 2.176c6.946 1.57 12.035 3.328 18.403 6.496 6.367 3.168 8.16 4.512 11.617 8.77 8.094 9.953 12.156 18.015 13.148 26.078.61 5.059.48 7.648-.734 12.45-1.344 5.245-3.008 8.8-6.656 13.952-1.407 2.016-3.871 5.535-5.473 7.84-3.453 4.992-6.016 8.254-8.606 11.008-1.503 1.566-2.562 2.305-4.578 3.262-3.136 1.472-14.625 5.41-15.808 5.41-.446 0-2.75-.992-5.153-2.207-4.605-2.371-5.855-2.817-11.359-4.067-2.496-.543-4.414-1.246-6.719-2.398-14.047-7.137-22.304-14.723-27.746-25.535-1.789-3.586-2.047-3.649-.414-.13 2.176 4.704 5.985 10.048 9.633 13.567 4.352 4.16 12.223 9.602 18.078 12.48 1.473.735 4.191 2.208 6.05 3.298 4.063 2.398 5.856 3.168 9.505 4.16 1.918.48 2.847.894 2.91 1.246.191.992-1.09 1.73-4.61 2.594-1.917.449-3.68 1.054-3.933 1.312-.738.734-.258.64 6.781-1.09l6.336-1.597 3.524.382c1.918.192 3.488.45 3.488.575 0 .195-3.715 1.984-6.113 2.945-4.258 1.727-12.223 3.328-18.047 3.617-3.328.16-3.457.125-2.625-.351.48-.29.863-.547.863-.61 0-.062-1.344.192-2.945.512-2.848.61-3.102.61-5.696.098-6.496-1.25-15.617-7.235-21.246-13.922-5.504-6.528-10.754-16.512-13.09-24.961-1.566-5.63-1.953-8.606-1.984-15.52 0-6.238.031-6.496 1.059-10.558 2.496-9.633 6.109-18.72 8.863-22.082l.766-.957-.637 2.015c-.93 3.07-.707 3.488.285.543 1.664-4.96 4-7.746 9.602-11.39 1.886-1.25 3.71-1.985 9.597-3.938 12.61-4.16 13.762-4.352 22.946-4.223 6.113.094 7.52.223 10.718.926Zm-62.11 23.328C9.313 42.465 8 46.688 6.879 53.602c-.671 4.32-.702 4.414-.956 2.91-.32-2.047.031-7.23.637-9.504.671-2.594 2.242-6.207 3.68-8.672 1.187-1.984 2.753-4.098 3.073-4.098.063 0-.449 1.188-1.183 2.625Zm3.2.899c-1.375 3.168-3.168 9.086-3.937 12.797-.895 4.418-1.47 12.351-1.153 15.84.418 4.671 1.219 9.699 2.082 13.218.926 3.809 5.918 13.985 9.602 19.582 2.398 3.711 2.75 4.48 1.98 4.48-1.277 0-6.656-5.245-9.054-8.831-2.274-3.391-2.977-5.535-3.137-9.375-.125-2.657-.32-3.52-1.438-6.434-1.472-3.71-1.793-5.312-2.242-11.137-.511-6.207.418-13.98 2.367-19.742 1.41-4.222 5.57-13.281 6.082-13.281.032 0-.48 1.312-1.152 2.883Zm106.879 19.902c2.656 12.258.512 24-6.238 34.434-3.137 4.797-9.059 10.336-13.922 12.992-1.918 1.055-5.406 2.43-6.11 2.43-.609 0 2.75-3.551 7.293-7.711 5.504-5.024 8.098-8.13 10.016-12.032.77-1.539 2.145-4 3.074-5.41 2.207-3.36 3.457-5.887 4.512-8.992 1.121-3.297 1.375-8.414.64-13.184-.577-3.68-.671-6.91-.226-6.113.16.258.578 1.89.961 3.586Zm-4.863 9.922c-.098.254-.192.156-.192-.195-.03-.352.063-.543.16-.414.094.093.13.382.032.609Zm-.703 5.344c-1.344 7.453-4.543 14.14-9.121 19.007-1.918 2.079-6.528 5.758-9.122 7.293l-1.277.77.992-1.281c.575-.703 3.008-4.16 5.473-7.68 2.46-3.52 5.535-7.934 6.848-9.793 2.847-4.031 4.734-7.582 5.757-10.848.641-1.949.801-2.207.864-1.437.066.512-.125 2.305-.414 3.969Zm-94.528 31.55c2.461 2.047 8.285 7.934 8.285 8.383 0 .832-2.238-.16-5.308-2.336-2.817-1.984-5.57-5.632-5.57-7.39 0-.578.703-.227 2.593 1.343Zm41.918.352c.832.258 1.762.77 2.047 1.09.578.605.547.637-.254.637-.8 0-3.777-.993-4.672-1.567-.222-.16-.351-.418-.222-.61.222-.35.797-.253 3.101.45Zm25.762 1.055c-.098.129-.961.867-1.922 1.601-1.664 1.282-1.824 1.344-3.742 1.246l-1.984-.093 3.808-1.504c4.414-1.73 4.063-1.602 3.84-1.25Zm-48.48 10.37c1.566.735 2.847 1.438 2.847 1.567 0 .672-5.984-.863-7.52-1.953-1.183-.832-4.32-4.351-4.32-4.863 0-.13 1.375.703 3.106 1.855 1.695 1.121 4.351 2.657 5.886 3.395Zm48.03-4c-4.702 5.598-13.054 10.27-21.503 12.063-2.945.61-9.344.61-12.895 0-6.082-1.054-12.61-3.808-11.875-4.992.13-.191 1.313-.258 3.106-.129 3.136.227 9.566-.191 15.586-.992 8.765-1.184 13.726-2.527 19.199-5.184 2.941-1.437 4.062-1.726 9.215-2.27.258 0-.13.673-.832 1.505Zm0 0"/><path d="M20.223 35.52c0 .449.066.609.16.382.066-.191.066-.574 0-.797-.094-.195-.16-.035-.16.415ZM19.902 37.602c0 .511.067.703.16.382.067-.289.067-.738 0-.96-.093-.192-.16.03-.16.578ZM22.113 69.121c0 .254.125.703.285.957.387.578.387.067 0-.797-.191-.418-.285-.48-.285-.16Zm0 0"/></svg>
